X:1
T:Title
%%score { 1 | 2 }
L:1/8
Q:1/4=116
M:2/2
K:Ab
V:1 treble nm="Grand Piano"
V:2 bass 
V:1
 [A,CE]2 [CEA]2 [CEG]2 [CEF]2 | [G,DF]4 [G,DE]4 | E2 F2 G2 F2 | [CE]8 | [Ec]2 [EF]2 [Dd]2 [Fc]2 | %5
w: H.~J.~E.~Holmes * * *|||||
 [FB]4 [DF]4 | A2 G2 F2 E2 | [CA]8 | c2 A2 G2 F2 | F4 =E4 | F2 G2 A2 [FB]2 | [=Ec]8 | c2 F2 d2 c2 | %13
w: ||||||||
 [DB]4 [DF]4 | A2 G2 F2 E2 | [CA]8 |] %16
w: |||
V:2
 A,,2 A,,2 A,,2 A,,2 | B,,4 B,,4 | [E,G,D]2 [E,A,D]2 [E,B,D]2 [E,G,D]2 | [A,,A,]8 | %4
 [_G,A,]2 [F,=A,]2 [B,,B,]2 [C,A,]2 | [D,B,]4 [B,,B,]4 | [E,B,D]2 [E,B,D]2 [E,A,D]2 [E,G,D]2 | %7
 [A,,A,]8 | [A,F]2 [F,CF]2[K:bass] [=E,B,C]2 [F,A,C]2 | [G,B,D]4 [G,B,D]4 | %10
 [A,C]2 [=E,B,C]2 [F,A,C]2 [D,F,]2 | [C,G,]8 | [F,=A,E]2 [F,A,E]2 [F,B,E]2 [F,A,E]2 | %13
 [B,,B,]4 [B,,B,]4 | [E,B,D]2 [E,B,D]2 [E,A,D]2 [E,G,D]2 | [A,,A,]8 |] %16

